loleaflet/images/lc_shareas.svg

<svg viewBox="0 0 24 24" xmlns="http://www.w3.org/2000/svg"><path d="m5 3v18h14v-14.2705905l-4-3.7294095z" fill="#fafafa"/><path d="m5 2c-.554 0-1 .446-1 1v18c0 .554.446 1 1 1h14c.554 0 1-.446 1-1v-10.109375-3.6412209-.2079239c0-.4506799.09887-.4265951-.604637-1.0675892l-3.307389-3.2370335c-.709525-.7368575-.711223-.7368575-1.094804-.7368575h-.331557-.661613zm0 1h9v4c0 .554.446 1 1 1h4v13h-14z" fill="#3a3a38"/><path d="m15 7h4l-4-4z" fill="#fafafa"/><path d="m14 11a1 1 0 0 0 -1 1 1 1 0 0 0 1 1 1 1 0 0 0 1-1 1 1 0 0 0 -1-1zm-2.5 2a.5.5 0 0 0 -.5.5.5.5 0 0 0 .5.5.5.5 0 0 0 .5-.5.5.5 0 0 0 -.5-.5zm-2.5 1a1 1 0 0 0 -1 1 1 1 0 0 0 1 1 1 1 0 0 0 1-1 1 1 0 0 0 -1-1zm2.5 2a.5.5 0 0 0 -.5.5.5.5 0 0 0 .5.5.5.5 0 0 0 .5-.5.5.5 0 0 0 -.5-.5zm2.5 1a1 1 0 0 0 -1 1 1 1 0 0 0 1 1 1 1 0 0 0 1-1 1 1 0 0 0 -1-1z" fill="#1e8bcd"/></svg>

<svg viewBox="0 0 24 24" xmlns="http://www.w3.org/2000/svg">
  <path
     d="m5 3v18h14v-14.2705905l-4-3.7294095z"
     fill="#fff"
     />
  <path
     d="m5 2c-.554 0-1 .446-1 1v18c0 .554.446 1 1 1h14c.554 0 1-.446 1-1v-10.109375-3.6412209-.2079239c0-.4506799.09887-.4265951-.604637-1.0675892l-3.307389-3.2370335c-.709525-.7368575-.711223-.7368575-1.094804-.7368575h-.331557-.661613zm0 1h9v4c0 .554.446 1 1 1h4v13h-14z"
     fill="#808080"
     />
  <path
     d="m15 7h4l-4-4z"
     fill="#fff"
     />
  <path
     style="fill:#4d82b8"
     d="M 14 11 A 1 1 0 0 0 13 12 A 1 1 0 0 0 14 13 A 1 1 0 0 0 15 12 A 1 1 0 0 0 14 11 z M 11.5 13 A 0.5 0.5 0 0 0 11 13.5 A 0.5 0.5 0 0 0 11.5 14 A 0.5 0.5 0 0 0 12 13.5 A 0.5 0.5 0 0 0 11.5 13 z M 9 14 A 1 1 0 0 0 8 15 A 1 1 0 0 0 9 16 A 1 1 0 0 0 10 15 A 1 1 0 0 0 9 14 z M 11.5 16 A 0.5 0.5 0 0 0 11 16.5 A 0.5 0.5 0 0 0 11.5 17 A 0.5 0.5 0 0 0 12 16.5 A 0.5 0.5 0 0 0 11.5 16 z M 14 17 A 1 1 0 0 0 13 18 A 1 1 0 0 0 14 19 A 1 1 0 0 0 15 18 A 1 1 0 0 0 14 17 z "
     />
</svg>
